vector-point-minus.svg

<svg fill="currentColor" viewBox="0 0 24 24"><path d="M9 9v6h6V9zm2 2h2v2h-2zm4 7v2h8v-2z"/></svg>

<svg  viewBox="0 0 24 24" fill="currentColor"><path  d="M9 9V15H15V9H9M11 11H13V13H11V11M15 18V20H23V18H15Z"/></svg>
